X: 18
T: the Star Above the Garter
O: trad. Ireland
R: jig
Z: 2012 John Chambers <jc:trillian.mit.edu>
B: the Portland Collection v.1 p.190
M: 6/8
L: 1/8
K: G
B/c/ |\
"G"d2B BAG | "D7"A2A ABA | "C"G2E c2B | "D7"BAG ABc |\
"G"d2B BAG | "D7"A2A ABA | "C"GFE cGE | "D7"DED D2:|
|:d |\
"D"d2e fga | "G"gfe d2B | "G"G2B "C"c2B | "G"BAG "Am"A3 |\
"D"d2e fga | "G"gfe d2B | "G"GAB "C"cGE |  "D7"DED D2 :|

%%sep 1 1 500

